polaris-icons/icons/newicons/LegalMajor.svg

<svg width="20" height="20" viewBox="0 0 20 20" fill="none" xmlns="http://www.w3.org/2000/svg">
<path fill-rule="evenodd" clip-rule="evenodd" d="M5.5 4.80225C5.5 3.83575 6.2835 3.05225 7.25 3.05225H15.25C16.1901 3.05225 17 3.80977 17 4.74973V14.2498C17 15.2942 16.548 16.0194 15.9382 16.4584C15.3667 16.87 14.7034 16.9998 14.25 16.9998H5.75C4.787 16.9998 3.92925 16.6922 3.32855 15.9855C2.74548 15.2996 2.5 14.3481 2.5 13.2498C2.5 12.8356 2.83579 12.4998 3.25 12.4998H5.5V4.80225ZM7 12.4998H11.75C12.1642 12.4998 12.5 12.8356 12.5 13.2498C12.5 13.999 12.8375 14.5599 13.2587 14.9487C13.4715 15.1451 13.6988 15.2902 13.8975 15.3837C13.9964 15.4302 14.0822 15.4612 14.1496 15.4796C14.2126 15.4969 14.2452 15.4994 14.2497 15.4997C14.2503 15.4998 14.2504 15.4998 14.25 15.4998C14.4633 15.4998 14.8 15.4296 15.0618 15.2411C15.2853 15.0802 15.5 14.8054 15.5 14.2498V4.74973C15.5 4.72636 15.4882 4.67829 15.4367 4.6286C15.387 4.58069 15.3205 4.55225 15.25 4.55225H7.25C7.11193 4.55225 7 4.66417 7 4.80225V12.4998ZM11.7443 15.4998C11.4374 15.0884 11.1895 14.5876 11.0727 13.9998H4.05632C4.13489 14.4735 4.28851 14.7988 4.47145 15.0141C4.72075 15.3073 5.113 15.4998 5.75 15.4998H11.7443ZM8.25 9.75C8.25 9.33579 8.58579 9 9 9H13.5C13.9142 9 14.25 9.33579 14.25 9.75C14.25 10.1642 13.9142 10.5 13.5 10.5H9C8.58579 10.5 8.25 10.1642 8.25 9.75ZM9 6C8.58579 6 8.25 6.33579 8.25 6.75C8.25 7.16421 8.58579 7.5 9 7.5H13.5C13.9142 7.5 14.25 7.16421 14.25 6.75C14.25 6.33579 13.9142 6 13.5 6H9Z" fill="black"/>
</svg>

<svg viewBox="0 0 20 20" fill="none" xmlns="http://www.w3.org/2000/svg"><path fill-rule="evenodd" clip-rule="evenodd" d="M5.5 4.802c0-.966.784-1.75 1.75-1.75h8c.94 0 1.75.758 1.75 1.698v9.5c0 1.044-.452 1.77-1.062 2.208a2.982 2.982 0 0 1-1.688.542h-8.5c-.963 0-1.82-.308-2.421-1.014-.584-.686-.829-1.638-.829-2.736a.75.75 0 0 1 .75-.75h2.25v-7.698Zm1.5 7.698h4.75a.75.75 0 0 1 .75.75c0 .749.338 1.31.759 1.699.213.196.44.341.639.435.098.046.184.077.252.096.063.017.095.02.1.02.213 0 .55-.07.812-.259.223-.16.438-.436.438-.991v-9.5c0-.024-.012-.072-.063-.121a.27.27 0 0 0-.187-.077h-8a.25.25 0 0 0-.25.25v7.698Zm4.744 3a3.707 3.707 0 0 1-.671-1.5h-7.017c.079.473.233.799.415 1.014.25.293.642.486 1.279.486h5.994Zm-3.494-5.75a.75.75 0 0 1 .75-.75h4.5a.75.75 0 0 1 0 1.5h-4.5a.75.75 0 0 1-.75-.75Zm.75-3.75a.75.75 0 0 0 0 1.5h4.5a.75.75 0 0 0 0-1.5h-4.5Z" fill="#5C5F62"/></svg>
